src/svg/tags.svg

<svg version="1.2" baseProfile="tiny" xmlns="http://www.w3.org/2000/svg" width="24" height="24" viewBox="0 0 24 24"><g><path d="M21.422 9.594l-6.465-6.535c-1.329-1.33-3.087-2.059-4.957-2.059s-3.628.729-4.95 2.051c-1.416 1.414-2.127 3.356-2.027 5.314-.662 1.085-1.023 2.33-1.023 3.634 0 1.87.729 3.628 2.051 4.95l3.053 2.984 3.482 3.48c.391.392.902.587 1.414.587s1.023-.195 1.414-.586l7-7c.778-.778.782-2.038.008-2.82l-.093-.094 1.085-1.086c.778-.778.782-2.038.008-2.82zm-9.422 12.406l-3.498-3.497-3.037-2.968c-1.953-1.953-1.953-5.119 0-7.07.976-.977 2.256-1.465 3.535-1.465s2.559.488 3.535 1.465l6.465 6.535-7 7zm1.957-14.941c-1.329-1.33-3.087-2.059-4.957-2.059-1.276 0-2.497.347-3.565.982.241-.55.579-1.067 1.03-1.518.976-.976 2.256-1.464 3.535-1.464s2.559.488 3.535 1.465l6.465 6.535-1.078 1.078-4.965-5.019zM9 10.499c.83 0 1.5.672 1.5 1.501 0 .83-.67 1.499-1.5 1.499s-1.5-.669-1.5-1.499c0-.829.67-1.501 1.5-1.501m0-1c-1.378 0-2.5 1.122-2.5 2.501 0 1.378 1.122 2.499 2.5 2.499s2.5-1.121 2.5-2.499c0-1.379-1.122-2.501-2.5-2.501z"/></g></svg>

<?xml version="1.0" encoding="iso-8859-1"?>
<!-- Generator: Adobe Illustrator 16.2.1, SVG Export Plug-In . SVG Version: 6.00 Build 0)  -->
<svg version="1.2" baseProfile="tiny" xmlns="http://www.w3.org/2000/svg" xmlns:xlink="http://www.w3.org/1999/xlink" x="0px"
	 y="0px" width="24px" height="24px" viewBox="0 0 24 24" xml:space="preserve">
<g id="Layer_1">
	<path d="M21.422,9.594l-6.465-6.535C13.628,1.729,11.87,1,10,1S6.372,1.729,5.05,3.051C3.634,4.465,2.923,6.407,3.023,8.365
		C2.361,9.45,2,10.695,2,11.999c0,1.87,0.729,3.628,2.051,4.95l3.053,2.984l3.482,3.48C10.977,23.805,11.488,24,12,24
		s1.023-0.195,1.414-0.586l7-7c0.778-0.778,0.782-2.038,0.008-2.82L20.329,13.5l1.085-1.086
		C22.192,11.636,22.196,10.376,21.422,9.594z M12,22l-3.498-3.497l-3.037-2.968c-1.953-1.953-1.953-5.119,0-7.07
		C6.441,7.488,7.721,7,9,7s2.559,0.488,3.535,1.465L19,15L12,22z M13.957,7.059C12.628,5.729,10.87,5,9,5
		C7.724,5,6.503,5.347,5.435,5.982c0.241-0.55,0.579-1.067,1.03-1.518C7.441,3.488,8.721,3,10,3s2.559,0.488,3.535,1.465L20,11
		l-1.078,1.078L13.957,7.059z"/>
	<g>
		<path d="M9,10.499c0.83,0,1.5,0.672,1.5,1.501c0,0.83-0.67,1.499-1.5,1.499S7.5,12.83,7.5,12C7.5,11.171,8.17,10.499,9,10.499
			 M9,9.499c-1.378,0-2.5,1.122-2.5,2.501c0,1.378,1.122,2.499,2.5,2.499s2.5-1.121,2.5-2.499C11.5,10.621,10.378,9.499,9,9.499z"/>
	</g>
</g>
<g id="nyt_x5F_exporter_x5F_info" display="none">
</g>
</svg>
